X: 1
T: Kasaposerviko
O: Greece
D: Sin Laikes Orchestra, NINA Record Co #4552B
Z: 2010 John Chambers <jc:trillian.mit.edu>
N: from a transcription by Jim Nabor & the Woods Hole Folk Orchestra
N: This tune is also found in Serbia and Croatia.
M: 2/4
L: 1/16
Q: 1/4=130
K: D
"D"{A}~d8 | {A}~d8 \
"A"|: "A7"efge "D"fffd | "A7"eeec "D"ffff | "A7"efge "D"fffd | "A7"eeec "D"~d4 :|
"B"|: "D"~a4 ~d4 | "A7"gfe2 "D"f2f2 | "D"~a4 ~d4 | "A7"gfe2 "D"~d4 :|
"C"|: "D"dd=cB ccBA | "G"BBAG "D"AAGF | "A"GGFE "D"FFED |1,3 "A+"^E4 "D"F4 :|2,4 "A7"D2C2 "D"D2z2 :|
"D"|: "D"F2AA "A7/e"G2BB | "D/f#"A2cc "G"B2dd |1,3 "A7"c2 e4 d2 | cdcB "D"~A4 :|2,4 "A7"cABG AFGE | "D"F2D2 ~F4 :|
